X:1
T:O God, my heart prepared is
T:John Alcock jr. (of Walsall)
T:Text: John Hopkins, on Ps. 108.
T:Edition by Edmund Gooch released into the public domain, December 2010. As such, it may be freely copied and performed.
T:O God, my heart prepared is
T:Psalm 108
C:John Alcock jr.
C:(of Walsall)
Z:Text: John Hopkins,
Z:on Ps. 108.
%%score [ 1 2 3 4 ]
L:1/8
M:3/2
K:E
V:1 treble nm="SOPRANO" snm="S."
V:2 treble nm="ALTO" snm="A."
V:3 treble-8 transpose=-12 nm="TENOR" snm="T."
V:4 bass nm="BASS" snm="B."
V:1
"^Brisk" B4 | e8 d4 | e8 B4 | (A4 G4) TF4 | E8 B4 | (c3 d e4) B4 | (c4 B4) T^A4 | B8 B4 | %8
w: Be-|cause thy|mer- cy|doth _ as-|cend A-|bove _ _ the|heav’ns _ most|high; Al-|
w: O|God, my|heart pre-|pa- * red|is; My|tongue _ _ is|like- * wise|so: I|
w: A-|wake, my|vi- ol|and _ my|harp, Sweet|me- * * lo-|dy _ to|make; And|
 (G3 F E4) e4 | (d3 c B4) c4 | (c4 B4) A4 | (A4 G4) A4 | B8 c4 | (f4 e4) Td4 | !fermata!e8 |] %15
w: so _ _ thy|truth _ _ doth|reach _ the|clouds _ With-|in the|lof- * ty|sky.|
w: will _ _ ad-|vance _ _ my|voice _ in|song, _ That|I thy|praise _ may|show.|
w: in _ _ the|morn- * * ing|I _ my-|self _ Right|ear- ly|will _ a-|wake.|
V:2
 E4 | E8 A4 | G8 F4 | E8 TD4 | E8 E4 | E8 F4 | G4 F8 | F8 F4 | E8 E4 | (F3 E D4) E4 | E8 TD4 | %11
w: Be-|cause thy|mer- cy|doth as-|cend A-|bove the|heav'ns most|high; Al-|so thy|truth _ _ doth|reach the|
w: O|God, my|heart pre-|pa- red|is; My|tongue is|like- wise|so: I|will ad-|vance _ _ my|voice in|
w: A-|wake, my|vi- ol|and my|harp, Sweet|me- lo-|dy to|make; And|in the|morn- * * ing|I my-|
 E8 D4 | E8 E4 | (A4 G4) TF4 | !fermata!G8 |] %15
w: clouds With-|in the|lof- * ty|sky.|
w: song, That|I thy|praise _ may|show.|
w: self Right|ear- ly|will _ a-|wake.|
V:3
 G4 | B8 A4 | B8 F4 | A4 (B6 A2) | G8 G4 | (A3 B c4) B4 | (e4 d4) Tc4 | d8 B4 | (B3 A G4) B4 | %9
w: Be-|cause thy|mer- cy|doth as- *|cend A-|bove _ _ the|heav'ns _ most|high; Al-|so _ _ thy|
w: O|God, my|heart pre-|pa- red _|is; My|tongue _ _ is|like- * wise|so: I|will _ _ ad-|
w: A-|wake, my|vi- ol|and my _|harp, Sweet|me- * * lo-|dy _ to|make; And|in _ _ the|
 B8 e4 | (c2 d2 e4) f4 | B8 A4 | (G3 A B4) A4 | c4 B8 | !fermata!B8 |] %15
w: truth doth|reach _ _ the|clouds With-|in _ _ the|lof- ty|sky.|
w: vance my|voice _ _ in|song, That|I _ _ thy|praise may|show.|
w: morn- ing|I _ _ my-|self Right|ear- * * ly|will a-|wake.|
V:4
 E,4 | G,8 F,4 | E,8 D,4 | C,4 B,,8 | E,8 E,4 | A,8 D,4 | E,4 F,8 | B,,8 D,4 | %8
w: Be-|cause thy|mer- cy|doth as-|cend A-|bove the|heav'ns most|high; Al-|
w: O|God, my|heart pre-|pa- red|is; My|tongue is|like- wise|so: I|
w: A-|wake, my|vi- ol|and my|harp, Sweet|me- lo-|dy to|make; And|
"^Emendations: Clefs in the source are treble, alto, tenor and bass. The first verse only of the text is given in the source,where the vocal bass part is also figured: figuring has been omitted to facilitate the underlaying of three other versesselected from the text. The soprano A and G# on beats 1 and 2 of bar 11, given here as minims, are printed in thesource as a small minim A followed by a full-sized semibreve G#. The tenor C# and D# on beat 1 of bar 10, given hereas crotchets, are printed in the source as a full-sized minim C# followed by a small crotchet D#." E,8 G,4 | %9
w: so thy|
w: will ad-|
w: in the|
 B,8 A,4 | (A,4 G,4) F,4 | E,8 F,4 | G,8 A,4 | (F,4 B,4) B,,4 | !fermata!E,8 |] %15
w: truth doth|reach _ the|clouds With-|in the|lof- * ty|sky.|
w: vance my|voice _ in|song, That|I thy|praise _ may|show.|
w: morn- ing|I _ my-|self Right|ear- ly|will _ a-|wake.|

